src/icons/asset-management/laptop_return.svg

<svg xmlns="http://www.w3.org/2000/svg" width="40" height="40" fill="none" viewBox="0 0 40 40">
  <circle cx="20" cy="20" r="20"  fill="fff" transform="rotate(-180 20 20)"/>
  <path fill="#0488E1" fill-rule="evenodd" d="M20 .0000035C8.95385.00000157-.00000157 8.95385-.0000035 20-.00000543 31.0462 8.95384 40 20 40c11.0461 0 20-8.9538 20-20C40 8.95385 31.0462.00000543 20 .0000035ZM18.9128 28.7795c.2885.2881.6795.4499 1.0872.4499.4077 0 .7987-.1618 1.0872-.4499l6.1538-6.1539c.1512-.1408.2724-.3106.3565-.4994.0841-.1887.1293-.3924.1329-.599.0037-.2065-.0343-.4117-.1117-.6033-.0774-.1916-.1925-.3656-.3386-.5117-.1461-.1461-.3201-.2612-.5117-.3386-.1916-.0774-.3967-.1154-.6033-.1117-.2066.0036-.4103.0488-.599.1329-.1887.0841-.3586.2053-.4994.3565l-3.5282 3.5282V12.3077c0-.408-.1621-.7993-.4506-1.0879-.2886-.2885-.6799-.4506-1.0879-.4506-.408 0-.7993.1621-1.0879.4506-.2885.2886-.4506.6799-.4506 1.0879v11.6718l-3.5282-3.5282c-.2916-.2718-.6773-.4197-1.0759-.4127-.3986.0071-.7789.1685-1.0607.4504-.2819.2819-.4434.6621-.4504 1.0607-.007.3986.1409.7843.4127 1.0759l6.1538 6.1539Z" clip-rule="evenodd"/>
</svg>

<svg width="40" height="40" viewBox="0 0 40 40" fill="none" xmlns="http://www.w3.org/2000/svg">
<circle cx="20" cy="20" r="20" transform="rotate(-180 20 20)" fill="white"/>
<path fill-rule="evenodd" clip-rule="evenodd" d="M20 3.49691e-06C8.95385 1.56554e-06 -1.56554e-06 8.95385 -3.49691e-06 20C-5.42828e-06 31.0462 8.95384 40 20 40C31.0461 40 40 31.0462 40 20C40 8.95385 31.0462 5.42828e-06 20 3.49691e-06ZM18.9128 28.7795C19.2013 29.0676 19.5923 29.2294 20 29.2294C20.4077 29.2294 20.7987 29.0676 21.0872 28.7795L27.241 22.6256C27.3922 22.4848 27.5134 22.315 27.5975 22.1262C27.6816 21.9375 27.7268 21.7338 27.7304 21.5272C27.7341 21.3207 27.6961 21.1155 27.6187 20.9239C27.5413 20.7323 27.4262 20.5583 27.2801 20.4122C27.134 20.2661 26.96 20.151 26.7684 20.0736C26.5768 19.9962 26.3717 19.9582 26.1651 19.9619C25.9585 19.9655 25.7548 20.0107 25.5661 20.0948C25.3774 20.1789 25.2075 20.3001 25.0667 20.4513L21.5385 23.9795L21.5385 12.3077C21.5385 11.8997 21.3764 11.5084 21.0879 11.2198C20.7993 10.9313 20.408 10.7692 20 10.7692C19.592 10.7692 19.2007 10.9313 18.9121 11.2198C18.6236 11.5084 18.4615 11.8997 18.4615 12.3077L18.4615 23.9795L14.9333 20.4513C14.6417 20.1795 14.256 20.0316 13.8574 20.0386C13.4588 20.0457 13.0785 20.2071 12.7967 20.489C12.5148 20.7709 12.3533 21.1511 12.3463 21.5497C12.3393 21.9483 12.4872 22.334 12.759 22.6256L18.9128 28.7795Z" fill="#0488E1"/>
</svg>
